dist/images/svg/sprite/ru-flag.svg

<svg width="30" height="30" viewBox="0 0 30 30" fill="none" xmlns="http://www.w3.org/2000/svg">
<path d="M2.8125 12.1875H27.1875V17.8125H2.8125V12.1875Z" fill="#0B55B1"/>
<path d="M2.8125 8.50412C2.8125 7.39955 3.70793 6.50412 4.8125 6.50412H25.1875C26.2921 6.50412 27.1875 7.39955 27.1875 8.50412V12.168H2.8125V8.50412Z" fill="#F0F0F0"/>
<path d="M2.8125 17.8319H27.1875V21.4958C27.1875 22.6004 26.2921 23.4958 25.1875 23.4958H4.8125C3.70793 23.4958 2.8125 22.6004 2.8125 21.4958V17.8319Z" fill="#D60A2E"/>
</svg>

<svg width="30" height="30" fill="none" xmlns="http://www.w3.org/2000/svg"><path d="M2.813 12.188h24.375v5.624H2.813v-5.625Z" fill="#0B55B1"/><path d="M2.813 8.504a2 2 0 0 1 2-2h20.375a2 2 0 0 1 2 2v3.664H2.813V8.504Z" fill="#F0F0F0"/><path d="M2.813 17.832h24.375v3.664a2 2 0 0 1-2 2H4.813a2 2 0 0 1-2-2v-3.664Z" fill="#D60A2E"/></svg>
